!!!!SEGMENT: pl-kk--kk-i-389--009-008_anonim--missa-no-9-dona.krn
!!!cenid: 17xx:2521
!!!COM: Anonim
!!!COM-rismID: pe30004985
!!!CDT:
!!!CNT:
!!!OPR: [Missa] No. 9.
!!!OTL: Dona
!!!OMV: 008
!!!PDT:
!!!AGN: Sacred; Mass
!!!YEC: Copyright 2022 Narodowy Instytut Fryderyka Chopina (https://polishscores.org)
!!!YEM: License CC-BY-4.0 (https://creativecommons.org/licenses/by/4.0)
!!!SMS-siglum: PL-Kk
!!!SMS-shelfmark: Kk.I.389
!!!SMS-variant:
!!!SMS-altvar:
!!!SMS-shelfwork: 009-008 M
!!!NIFC-rismSourceID: 1001146182
!!!NIFC-rismChildID: 1001147253
!!!NIFC-islandoraID: pl-kk:6976
!!!URL-pdf-islandora: https://repozytorium.nifc.pl/islandora/object/pl-kk%3A6976/datastream/PDF/view
!!!URL-scan: https://polish.musicsources.pl/pl/lokalizacje/galeria/rekopisy/5999/1 @EN{Scan on Polish Music Sources Website} @PL{Skany w portalu Dziedzictwo Muzyki Polskiej w otwartym dostępie}
!!!IIIF:
!!!ONB-nifc: UWAGA: S – skan 15-16, A – 34-35, T – 53-54, B – 72-73. Części Mszy: Rorate, Kyrie, Gloria, Graduale, Sanctus, Benedictus, Agnus, Dona. Uwaga: Jeśli w części głosów Dona jest rozpisane a w pozostałych jest adnotacja „ut Kyrie”, wszystkie głosy należy rozpisać z podłożonym tekstem Dona (do ukrycia w humdrumie).
!!!AIN: 1 alto 1 bass 1 soprn 1 tenor
!!!key: C
**kern	**text	**kern	**text	**kern	**text	**kern	**text
*part4	*part4	*part3	*part3	*part2	*part2	*part1	*part1
*staff4	*staff4	*staff3	*staff3	*staff2	*staff2	*staff1	*staff1
*I"Basso.	*	*I"Tenore.	*	*I"Alto.	*	*I"Soprano.	*
*I'B	*	*I'T	*	*I'A	*	*I'S	*
*ICvox	*	*ICvox	*	*ICvox	*	*ICvox	*
*Ibass	*	*Itenor	*	*Ialto	*	*Isoprn	*
*clefF4	*	*clefC4	*	*clefC3	*	*clefC1	*
*k[]	*	*k[b-]	*	*k[b-]	*	*k[b-]	*
*C:	*	*C:	*	*C:	*	*C:	*
*M2/2	*	*M2/2	*	*M2/2	*	*M2/2	*
*met(c|)	*	*met(c|)	*	*met(c|)	*	*met(c|)	*
=1	=1	=1	=1	=1	=1	=1	=1
*	*	*	*	*	*	*all\right:global	*
!	!	!	!	!	!	!LO:TX:t=P:problem:w soprano, alto i tenore tekst dopisany propozycyjnie, do melodii z kyrie, do ukrycia.	!
4.C/	Do-	4.e\yy	Do-	4.c/yy	Do-	4.g\yy	Do-
8C/	-na	8e\yy	-na	8G/yy	-na	8cc\yy	-na
4C/	no-	4e\yy	no-	4G/yy	no-	4cc\yy	no-
4C/	-bis	4G/yy	-bis	4e\yy	-bis	4cc\yy	-bis
=2	=2	=2	=2	=2	=2	=2	=2
4G\	pa-	8G/Lyy	pa-	8e\Lyy	pa-	8cc\Lyy	pa-
.	.	8F/yy	.	8d\Jyy	.	8g\Jyy	.
4GG/	.	8E/yy	.	8c\Lyy	.	4g\yy	-cem
.	.	8D/Jyy	.	8B\Jyy	.	.	.
8C/	-cem	4E/yy	-cem	4c\yy	-cem	8g/yy	do-
8C/	do-	.	.	.	.	8e/yy	.
8E\L	.	4ryy	.	4ryy	.	8g\yy	.
8G\J	-na	.	.	.	.	8cc\yy	-na
=3	=3	=3	=3	=3	=3	=3	=3
4.c\	Do-	4.c\yy	Do-	4.e\yy	Do-	4.g/yy	Do-
8C/	-na	8G/yy	-na	8c\yy	-na	8e/yy	-na
4C/	no-	4G/yy	no-	4c\yy	no-	4e/yy	no-
4C/	-bis	4e\yy	-bis	4g\yy	-bis	4cc\yy	-bis
=4	=4	=4	=4	=4	=4	=4	=4
4G\	pa-	8e\Lyy	pa-	8g\Lyy	pa-	8cc\Lyy	pa-
.	.	8d\yy	.	8f\Jyy	.	8b\Jyy	.
4GG/	.	8c\yy	.	8e\Lyy	.	4g\yy	-cem
.	.	8B\Jyy	.	8d\Jyy	.	.	.
!LO:LB:g=original	!	!	!	!	!	!	!
8C/	-cem	4c\yy	-cem	4e\yy	-cem	8g\yy	do-
8c\	do-	.	.	.	.	8ee\yy	.
8G\L	.	4ryy	.	4ryy	.	8cc\yy	.
8E\J	-na	.	.	.	.	8g\yy	-na
=5	=5	=5	=5	=5	=5	=5	=5
4.C/	Do-	4.c\yy	Do-	4.e\yy	Do-	4.g\yy	Do-
8BB/	-na	8d\yy	-na	8f\yy	-na	8g\yy	-na
4C/	no-	8e\Lyy	no-	8g\Lyy	no-	4g\yy	no-
.	.	8c\Jyy	.	8e\Jyy	.	.	.
4C/	-bis	8f\Lyy	-bis	8a\Lyy	-bis	4cc\yy	-bis
.	.	8e\Jyy	.	8g\Jyy	.	.	.
=6	=6	=6	=6	=6	=6	=6	=6
*2\right	*	*	*	*	*	*	*
2G\	Pa-	8e\Lyy	Pa-	8g\Lyy	Pa-	8cc\Lyy	Pa-
.	.	8d\Jyy	.	8f\Jyy	.	8b\Jyy	.
.	.	8d\Lyy	.	8f\Lyy	.	8b\Lyy	.
.	.	8c\Jyy	.	8e\Jyy	.	8g\Jyy	.
4GG/	-cem	4d\yy	-cem	4f\yy	-cem	4g\yy	-cem
4r	.	4ryy	.	4ryy	.	4ryy	.
=7	=7	=7	=7	=7	=7	=7	=7
2r	.	4.B\yy	Do-	4.d\yy	Do-	4.g\yy	Do-
.	.	8c\yy	-na	8e\yy	-na	8g\yy	-na
4r	.	8d\Lyy	no-	8f\Lyy	no-	4g\yy	no-
.	.	8B\Jyy	.	8d\Jyy	.	.	.
8r	.	8e\Lyy	-bis	8g\Lyy	-bis	4g\yy	-bis
8G\	da	8d\Jyy	.	8f\Jyy	.	.	.
=8	=8	=8	=8	=8	=8	=8	=8
!	!	!	!	!	!	!LO:TX:t=P:problem:2\right:global	!
2G\	pa-	8d\Lyy	Pa-	8f\Lyy	Pa-	2g\yy	Pa-
.	.	8c\Jyy	.	8e\Jyy	.	.	.
.	.	8c\Lyy	.	8e\Lyy	.	.	.
.	.	8B\Jyy	.	8d\Jyy	.	.	.
4C/	-cem	4c\yy	-cem	4e\yy	-cem	4g\yy	-cem
8r	.	8ryy	.	8ryy	.	8ryy	.
8GG/	da	8B\yy	da	8d\yy	da	8g\yy	da
!LO:LB:g=original	!	!	!	!	!	!	!
=9	=9	=9	=9	=9	=9	=9	=9
.	.	8qqd/yy	.	8qqf/yy	.	.	.
2C/	pa-	4c\yy	pa-	4e\yy	pa-	2g\yy	pa-
.	.	8B\Lyy	.	8d\Lyy	.	.	.
.	.	8c\Jyy	.	8e\Jyy	.	.	.
4F\	.	8f\Lyy	.	8a\Lyy	.	2a\yy	.
.	.	8e\Jyy	.	8g\Jyy	.	.	.
4F#X\	.	8d\Lyy	.	8f\Lyy	.	.	.
.	.	8c\Jyy	.	8e\Jyy	.	.	.
=10	=10	=10	=10	=10	=10	=10	=10
!	!	!LO:TX:t=P:problem:2\right:global	!	!LO:TX:t=P:problem:2\right:global	!	!	!
.	.	8qqc/yy	.	8qqe/yy	.	.	.
2G\	-cem	2B\yy	-cem	2d\yy	-cem	2g\yy	-cem
2r	.	2ryy	.	2ryy	.	2ryy	.
=11	=11	=11	=11	=11	=11	=11	=11
2r	.	2B\yy	do-	4.g\yy	do-	2ryy	.
.	.	.	.	8d\yy	-na	.	.
4r	.	4B\yy	-na	4d\yy	no-	4ryy	.
4G\	do-	8c\Lyy	da	8e\Lyy	-bis	4b\yy	do-
.	.	8d\Jyy	.	8f\Jyy	.	.	.
=12	=12	=12	=12	=12	=12	=12	=12
8B\L	.	2d\yy	pa-	2f\yy	pa-	8dd\Lyy	.
8G\J	.	.	.	.	.	8b\yy	.
8A\L	.	.	.	.	.	8cc\yy	.
8B\J	.	.	.	.	.	8dd\Jyy	.
4c\	-na	4c\yy	-cem	4e\yy	-cem	4ee\yy	-na
4r	.	4ryy	.	4ryy	.	4ryy	.
=13	=13	=13	=13	=13	=13	=13	=13
2r	.	2c#X\yy	do-	4.a\yy	do-	4.ee\yy	do-
.	.	.	.	8e\yy	-na	8a\yy	.
4r	.	4c#\yy	-na	4e\yy	no-	4a\yy	-na
4A\	da	8d\Lyy	da	8f#X\Lyy	-bis	4cc#X\yy	pa-
.	.	8e\Jyy	.	8g\Jyy	.	.	.
=14	=14	=14	=14	=14	=14	=14	=14
8c#X\L	pa-	2e\yy	pa-	2g\yy	pa-	8ee\Lyy	.
8A\	.	.	.	.	.	8cc#X\yy	.
8B\	.	.	.	.	.	8dd\yy	.
8c#\J	.	.	.	.	.	8ee\Jyy	.
!LO:LB:g=original	!	!	!	!	!	!	!
4d\	cem	4d\yy	-cem	4f#X\yy	-cem	4dd\yy	-cem
4F#X\	do-	4d\yy	do-	4a\yy	do-	4ccn\yy	do-
=15	=15	=15	=15	=15	=15	=15	=15
4G\	.	4d\yy	-na	4b\yy	-na	4g\yy	.
4E\	-na	8e\Lyy	no-	8cc\Lyy	no-	4cc\yy	-na
.	.	8c\Jyy	.	8a\Jyy	.	.	.
2D\	pa-	4B\yy	-bis	4g\yy	-bis	2dd\yy	pa-
.	.	8c\Lyy	pa-	8a\Lyy	pa-	.	.
.	.	8A\Jyy	.	8f#X\Jyy	.	.	.
=16	=16	=16	=16	=16	=16	=16	=16
4GG/	-cem,	2B\yy	-cem	2g\yy	-cem	4dd\yy	-cem,
8d\	do-	.	.	.	.	8ff\yy	do-
8c\	-na	.	.	.	.	8ee\yy	-na
8B\	no-	2ryy	.	2ryy	.	8dd\yy	no-
8A\	-bis	.	.	.	.	8ff\yy	-bis
8G\L	pa-	.	.	.	.	8ee\yy	pa-
8Fn\J	.	.	.	.	.	8dd\yy	.
=17	=17	=17	=17	=17	=17	=17	=17
4E\	-cem	4ryy	.	4ryy	.	4cc\yy	-cem
4r	.	8e\yy	do-	8g\Lyy	do-	4ryy	.
.	.	8d\yy	-na	8fn\Jyy	.	.	.
2r	.	8c\yy	no-	8e\Lyy	na	2ryy	.
.	.	8B-X\yy	-bis	8d\Jyy	.	.	.
.	.	8A/Lyy	pa-	8c/Lyy	pa-	.	.
.	.	8G/Jyy	.	8B-X/Jyy	.	.	.
=18	=18	=18	=18	=18	=18	=18	=18
4r	.	4F/yy	-cem	4A/yy	-cem	4ryy	.
8F\	do-	4ryy	.	4ryy	.	8a\yy	do-
8G\	-na	.	.	.	.	8b-X\yy	-na
8A\L	pa-	2ryy	.	2ryy	.	8cc\yy	no-
8G\	.	.	.	.	.	8b-\yy	-bis
8F#X\	.	.	.	.	.	8a\Lyy	pa-
8A\J	.	.	.	.	.	8cc\Jyy	.
!LO:LB:g=original	!	!	!	!	!	!	!
=19	=19	=19	=19	=19	=19	=19	=19
2G\	-cem	2ryy	.	2ryy	.	2bn\yy	-cem
4.G\	do-	4.d\yy	do-	4.g\yy	do-	4.b\yy	do-
8G\	-na	8d\yy	-na	8g\yy	-na	8b\yy	-na
=20	=20	=20	=20	=20	=20	=20	=20
2A\	no-	2d\yy	no-	2f#X\yy	no-	2cc\yy	no-
2B\	-bis	2d\yy	-bis	2fn\yy	-bis	2g\yy	-bis
=21	=21	=21	=21	=21	=21	=21	=21
8c\L	pa-	4c\yy	pa-	4e\yy	pa-	4g\yy	pa-
8G\J	.	.	.	.	.	.	.
8E\	-cem	8e\yy	-cem	8g\yy	-cem	8cc\yy	-cem
8C\	da	8e\yy	da	8g\yy	da	8cc\yy	da
4F\	pa-	4f\yy	pa-	4a\yy	pa-	4dd\yy	pa-
!LO:TX:t=P:problem:mixed beam	!	!	!	!	!	!	!
8G\L	.	4d\yy	.	4g\yy	.	4b\yy	.
8GG/J	.	.	.	.	.	.	.
=22	=22	=22	=22	=22	=22	=22	=22
4C/	-cem,	2e\yy	-cem	4g\yy	-cem	4cc\yy	-cem,
8d\	do-	.	.	4ryy	.	8ff\yy	do-
8c\	-na	.	.	.	.	8ee\yy	-na
8B\	no-	2ryy	.	2ryy	.	8dd\yy	no-
8A\	-bis	.	.	.	.	8ff\yy	-bis
8G\L	pa-	.	.	.	.	8ee\Lyy	pa-
8F\J	.	.	.	.	.	8dd\Jyy	.
=23	=23	=23	=23	=23	=23	=23	=23
4E\	-cem	4ryy	.	4ryy	.	4cc\yy	-cem
4r	.	8G/yy	do-	8e\yy	do-	4ryy	.
.	.	8A/yy	-na	8f\yy	-na	.	.
2r	.	8B-X\yy	no-	8g\yy	no-	2ryy	.
.	.	8d\yy	-bis	8b-X\yy	-bis	.	.
.	.	8c\Lyy	pa-	8a\Lyy	pa-	.	.
.	.	8B-\Jyy	.	8g\Jyy	.	.	.
!LO:LB:g=original	!	!	!	!	!	!	!
=24	=24	=24	=24	=24	=24	=24	=24
4r	.	4A\yy	-cem	4f\yy	-cem	4ryy	.
8F\	do-	4ryy	.	4ryy	.	8a\yy	do-
8G\	-na	.	.	.	.	8b-X\yy	-na
8A\	no-	2ryy	.	2ryy	.	8cc\yy	no-
8G\	-bis	.	.	.	.	8b-\yy	-bis
8F#X\L	pa-	.	.	.	.	8a\Lyy	pa-
8A\J	.	.	.	.	.	8cc\Jyy	.
=25	=25	=25	=25	=25	=25	=25	=25
2G\	-cem	2ryy	.	2ryy	.	2bn\yy	-cem
4.G\	do-	4.d\yy	do-	4.g\yy	do-	4.b\yy	do-
8G\	-na	8d\yy	-na	8g\yy	-na	8b\yy	-na
=26	=26	=26	=26	=26	=26	=26	=26
2A\	no-	2d\yy	no-	2f#X\yy	no-	2cc\yy	no-
2B\	-bis	2d\yy	-bis	2fn\yy	-bis	2g\yy	-bis
=27	=27	=27	=27	=27	=27	=27	=27
8c\L	pa-	4c\yy	pa-	4e\yy	pa-	4g\yy	pa-
8G\J	.	.	.	.	.	.	.
8E\	-cem	8e\yy	-cem	8g\yy	-cem	8cc\yy	-cem
8C\	da	8e\yy	da	8g\yy	da	8cc\yy	da
4F\	pa-	4f\yy	pa-	4a\yy	pa-	4dd\yy	pa-
4G\	.	4d\yy	.	4g\yy	.	4b\yy	.
=28	=28	=28	=28	=28	=28	=28	=28
2C/	-cem.	2e\yy	-cem.	2g\yy	-cem.	2cc\yy	-cem.
2r	.	2ryy	.	2ryy	.	2ryy	.
==	==	==	==	==	==	==	==
*-	*-	*-	*-	*-	*-	*-	*-
!!!system-decoration: [(s1,s2,s3,s4)]
!!!ENC: Filip Voros
!!!END: 2023-11-13
!!!ENC: Leszek Kubiak
!!!END: 2024-01-20
